X:1
T:Versi
T:Versi
T:Il secondo libro de Ricercate, 1615
T:Giovanni Maria Trabaci (1575?-1647)
C:Giovanni Maria Trabaci (1575?-1647)
%%score { ( 1 2 ) | ( 3 4 ) } 5
L:1/8
Q:1/4=63
M:4/4
K:F
V:1 treble nm="Orgel"
V:2 treble 
V:3 bass 
V:4 bass 
V:5 treble nm="Orgel" snm="Org."
V:1
"^1.""_(sempre legato)""_m.s." x8 | z2"^m.d." d2 f2 ^c2 | d2 g2 f2 e2 | d2 c2 Bcde | %4
 f3 e/d/"^___\n|     |\n""_m.s.->m.d. 1" c!3!d !5!e2 | !3
1
!A2 d4 ^c2 | %6
 d2 A2 !4
1
!B2 !5
21
!d2 | !4
2
!cd !3
1
!B!5!c !4
2
!AB !3
1
!G2 | %8
[Q:1/4=60] !4
1
!G4[Q:1/4=56] !3
12
!^F4 | !fermata!!5
2
1
!G8 || %10
[M:4/4][Q:1/4=63]"^2." z"^m.d." !2!def g2 !45!f2 | %11
 !4
2
!e2 !3
1
!d2"^__\n|   |\n" z !2!c!3
1
!de | %12
 f2 e2 d/e/"^________\n|               |\n"!5!f/!2!d/ !5!g/f/e/d/ | %13
[Q:1/4=62]"^.9" c[Q:1/4=61]"^.7" !34!B2[Q:1/4=58][Q:1/4=52]"^.3" !3!A[Q:1/4=43] !4
2
!B4[Q:1/4=63] | %14
 z !4!A!5
1
!B!4!c !5!d2 !5
2
!c2 | z !4!B!5
1
!c!4!d !5
3
!_e!4
2
!d!34
1
!c!34
2
!B | %16
 !3
1
!A2 !24!G4[Q:1/4=60][Q:1/4=56] !3!^F2 | !fermata!!5
2
1
!G8 || %18
[K:C][M:2/2]"^3. cromatico"[Q:1/2=56] z8 | z8 | z8 | %21
 z4"^___________\n|                     |\n" z2 !5!g2 | !4
1
!^f2 !5
2
!=f2 !4
1
!e2 !34
2
!_e2 | %23
 !3!d2 !5
12
!g4 !4!=f2 | !35!e6 !45
1
!d2- | %25
"^________________\n|                               |\n" d2 !2!^c2 !12
4
!d3 c/B/ | %26
 d2[Q:1/2=55]"^.8" !35
1
!A4[Q:1/2=54][Q:1/2=52]"^.9" !45
12
!G2-[Q:1/2=56] | %27
[Q:1/2=49]"^.6" !(5)!G2[Q:1/2=44]"^.9" !4
1
!^F[Q:1/2=41]"^.9"E[Q:1/2=38]"^.5" F4[Q:1/2=36]"^.6"[Q:1/2=34]"^.6"[Q:1/2=32]"^.5"[Q:1/2=30]"^.2"[Q:1/2=27]"^.9"[Q:1/2=25]"^.4"[Q:1/2=22]"^.7" | %28
"_|____|"[Q:1/2=20] !fermata!!5
2
1
!G8 |] %29
V:2
 G4 B2 ^F2 | G3 =F/E/ D2 A2 | B3 A/G/ Ad =cA | BG AF G3 F/E/ | D"^__\n|   |\n"A B2 A3 !2!G | %5
 F4"^__\n|   |\n" E4 |[I:staff +1] !2
3
!D3 !1!C !2
4
!B,2[I:staff -1] G2 | A2 G2 F2 _E2 | D8 | %9
 D8 ||[M:4/4] z4 z"_m.s." GAB | c2 B2 A2 G2 | z"^_______\n|             |\n" FGA BF !1
54
!G2- | %13
 G2"^.4" !1!^F2 G4 | !12!=F2 _E2 z D=E!1!F | !2!G2 F2 cBAG | ^F2 GC"____\n|     |\n" !4
12
!A,4 | %17
 =B,8 ||[K:C][M:2/2] z8 | z4 z2 !5!d2 | !3!^c2 !2!=c2 !1!=B2 !3!_B2 | !1!A4 G3 G | %22
 A2 =B2 c"^__\n|   |\n"!1!G c2- | c2 =B2 !1!A4 | z2 !1!A2 !2!^G2 =G2 | %25
 !1
5
!^F!1!=F E2 D2 !1
5
!G2 | A2[I:staff +1] A,2"^.9" !2!G,2 A,2 | =B,2 _B,2 A,4 | =B,8 |] %29
V:3
 z8 | z8 | z8 | z8 | D4 !1
2   
!F2 !3!^C2 | D4 A,2[I:staff -1] A2 | FG A2 D4 | %7
[I:staff +1] F2 !21
4
!_E2 !1
4
!D2 !1
4
!C!2
5
!B, | !1
43
!A,8 |"^|____|" !fermata!=B,8 || %10
[M:4/4] z8 | z !5!CDE !1
2
!F2 E2 | !43!D2 C2 B,4 | !54!A,4 !1!G,4 | %14
 z F,G,!2!A, !1!B,2 !1
4
!A,2 | z G,!1
54
!A,!2!B, !1
5
!C4 | z !3!A,B,C"^|___|" !21
53
!D4 | %17
"^|___|" !fermata!!5!D8 ||[K:C][M:2/2] !2!G4 ^F2 !1!=F2 | E2 _E2 D4 | =E3 ^F G2 G,2 | %21
 !4!C2 D2 !1
2
!_E4 | D4 !4!C4 | !1!G4 z4 | z8 |"^|___|" A4"^|___|" G2 _E2 | %26
 !1
4
!D!2!A,[I:staff -1] D2 !4
2
!^C2 !12
5
!=C2 | !1
5
!=B,2 !2!C2 !1
53
!D4 | %28
 !fermata!!5!D8 |] %29
V:4
 z8 | z8 | z8 | z8 | z8 | z4 A,4 | B,2 !5!^F,2 G,2 x2 | !1
3
!A,F, G,_E, F,D, E,C, | D,8 | G,,8 || %10
[M:4/4] z8 | z8 | z8 | z4 z !5!G,,!4!B,,C, | !24!D,2 C,2 z !(1)
5
!B,,C,!5!D, | %15
 !4!_E,2 D,2 C,!5!A,,B,,C, | !25!D,8 | G,,8 ||[K:C][M:2/2] z8 | z8 | z8 | z8 | z8 | z4 z2 !1!D2 | %24
 ^C2 =C2 !1!=B,2 !4!_B,2 | A,4 B,2 G,2 | ^F,2 !1
5
!=F,2 E,2 _E,2 | D,8 | G,,8 |] %29
V:5
 z8 | z8 | z8 | z8 | z8 | z8 | z8 | z8 | z8 | z8 ||[M:4/4] z8 | z8 | z8 | z8 | z8 | z8 | z8 | z8 || %18
[K:C][M:2/2] z8 | z8 | z8 | z8 | z8 | z8 | z8 | z8 | z8 | z4 !//-!G3/2 ^F3/2 E/ F/ | z8 |] %29

